X:90
T:O'Keefe's
T:Danny Ab's
R:slide
Z:id:hn-slide-90
M:6/8
L:1/8
K:G
~B3 cBc | d3 d2e | dBG dBG | A3 AGA |
~B3 cBc | d3 d2g | fed cBA |1 G3 G2A :|2 G3 GBd ||
|: g2d B2g | fed c3 | ded c2A | ded B2d |
g2d B2g | fed c2B | ABc def |1 g3 g2d :|2 g3 g2A ||
<end>
<start>
